X:1
T:Title
L:1/8
M:3/4
K:G
V:1 treble nm="Church Organ, Staff"
V:1
 D2 G3 F | G2 B3 A | G2 FE F2 | G2 B2 c2 | d3 ^c d2 | ed B2 A2- | A4 A2- | A2 D2 B2- | %8
w: By~Rev.~George~P.~Grantham * *||||||||
 B_B =B2 d2- | dc B2 A2- | A2 B2 G2- | GA B2 A2 | A2 F2 G2 | G2 E2 D2- | D4 D2- | D2 d2 d2- | %16
w: ||||||||
 d2 c2 B2- | Bc d2 c2- | c2 B2 A2 | B2 c2 d2- | dd d2 d2 | c2 B2 A2- | A4 A2- | A2 D2 B2- | %24
w: ||||||||
 BA B2 G2- | G2 D2 c2- | cB c2 A2- | A2 D2 d2- | dc B2 A2 | B2 A2 G2- | G4 G2- | G2 z2 z2 |] %32
w: ||||||||

